X:1
T:There Is Cleansing in the Blood
T:There Is Cleansing in the Blood
T:Peter Philip Bilhorn
T:W. A. Wells, 1889
T:Public Domain Courtesy of the Cyber Hymnal™
T:Public Domain Courtesy of the Cyber Hymnal™
C:Peter Philip Bilhorn
Z:Public Domain
Z:Courtesy of the Cyber Hymnal™
%%score ( 1 2 ) ( 3 4 )
L:1/8
Q:1/4=105
M:4/4
K:A
V:1 treble 
V:2 treble 
V:3 bass 
V:4 bass 
V:1
 [A,C][B,D] | [CE]2 [CA]2 [CA]2 [EG]2 | [EG]2 [DF]2 !fermata![DF]2 B,[^A,C] | %3
w: 1.~When the|Sav- ior came to|dwell be- low On the|
w: 2.~You have|doubt- less heard it|oft be- fore, Yet the|
w: 3.~’Twas for|you the Lord was|cru- ci- fied, See His|
w: 4.~Hear and|heed the Spir- it’s|plead- ing voice, Come! O|
w: 5.~Sav- ior|dear, to Thee my|heart I bring; Now ac-|
 [B,D]2 [DG]2 [DF]3 [DG] | [DF]2 [CE]2 [CE]2 [A,C][B,D] | [CE]2 [CA]2 [CA]2 [EG]2 | %6
w: cross His won- drous|love to show, ’Twas that|all this bless- èd|
w: Spir- it comes to|thee once more, And re-|peats the sto- ry|
w: bleed- ing hands, His|feet, His side; ’Twas for|you He suf- fered|
w: come, and make the|Lord your choice, And this|truth will make you|
w: cept my hum- ble|of- fer- ing, That with|all Thy saved ones|
 [EG]2 [DF]2 !fermata![Fd]2 [Fc]>[FB] | [EA]2 [EA]2 [Ec]2 [DB]2 | [CA]6 ||"^Refrain" [Ec]>[DB] | %10
w: truth might know: There is|cleans- ing in the|blood.||
w: o’er and o’er: There is|cleans- ing in the|blood.||
w: thus and died: There is|cleans- ing in the|blood.|There is|
w: to re- joice: There is|cleans- ing in the|blood.||
w: I may sing, There is|cleans- ing in the|blood.||
 A4 [CE]2 [EA]>[EB] | ([EA]4 G2) [GB]>[Ac] | d3 B>[Ac] [GB]2 [ce]>[Bd] | [Ac]6 [Ec]>[DB] | %14
w: ||||
w: ||||
w: cleans- ing in the|blood, * in the|blood, There is cleans- ing in|the blood, in|
w: ||||
w: ||||
 [CA]>[CA] [CA]>[CA] | [CA]2 [EA]>[EG] | [EG]>[DF] [DF]>[DF] !fermata![Fd]2 [Fc]>[FB] | %17
w: |||
w: |||
w: the blood; All who|in the Lord|be- lieve, Shall have life and joy|
w: |||
w: |||
 [EA]2 [EA]2 [Ec]2 [DB]2 | [CA]6 |] %19
w: ||
w: ||
w: and peace, There is|cleans-|
w: ||
w: ||
V:2
 x2 | x8 | x6 B, x | x8 | x8 | x8 | x8 | x8 | x6 || x2 | C>C C>C x4 | x8 | B>B x7 | x8 | x4 | x4 | %16
 x8 | x8 | x6 |] %19
V:3
 [A,,E,][A,,E,] | [A,,A,]2 [A,,E,]2 [A,,E,]2 [C,A,]2 | %2
w: ~ ~|~ ~ ~ ~|
 [D,A,]2 [D,A,]2 !fermata![D,A,]2 [D,F,][C,F,] | [B,,F,]2 E,2 [E,G,]3 [E,B,] | %4
w: ~ ~ ~ ~ ~|~ ~ ~ ~|
 [A,,A,]2 [A,,A,]2 !fermata![A,,A,]2 [A,,E,][A,,E,] | [A,,A,]2 [A,,E,]2 [A,,E,]2 [C,A,]2 | %6
w: ~ ~ ~ ~ ~|~ ~ ~ ~|
 [D,A,]2 [D,A,]2 !fermata![B,,B,]2 [C,^A,]>[D,B,] | [E,C]2 [E,C]2 [E,A,]2 [E,,D,G,]2 | [A,,A,]6 || %9
w: ~ ~ ~ ~ ~|~ ~ ~ ~|~|
 [A,,A,]>[A,,A,] | ([A,,E,]>[A,,E,][A,,E,]>[A,,E,]) [A,,A,]2 [E,C]>[E,D] | (C4 B,2) [E,E]>[E,E] | %12
w: There is|cleans- * * * ing ~ ~|~ * There is|
 ([E,E]>[E,E][E,E]>[E,E]) [E,E]2 [E,E]>[E,E] x | [A,E]6 [A,,A,]>[A,,A,] | %14
w: cleans- * * * ing * *||
 [A,,E,]>[A,,E,] [A,,E,]>[A,,E,] | [A,,A,]2 [C,A,]>[C,A,] | %16
w: ||
 [A,,E,]>[A,,E,] [A,,E,]>[A,,E,] !fermata![B,,B,]2 [C,^A,]>[D,B,] | %17
w: |
 [E,C]2 [E,C]2 [E,A,]2 [E,,E,G,]2 | [A,,A,]6 |] %19
w: ||
V:4
 x2 | x8 | x8 | x2 E,2 x4 | x8 | x8 | x8 | x8 | x6 || x2 | x8 | E,6 x2 | x9 | x8 | x4 | x4 | x8 | %17
 x8 | x6 |] %19

